wx-src/img/help-dk.svg

<?xml version="1.0" encoding="UTF-8"?>
<svg width="16" height="16" version="1.1" viewBox="0 0 16 16" xmlns="http://www.w3.org/2000/svg">
 <path d="m8 1a7 7 0 1 0 7 7 7.008 7.008 0 0 0-7-7zm0 13a6 6 0 1 1 6-6 6.007 6.007 0 0 1-6 6zm0-10.875a2.7 2.7 0 0 0-2.875 2.875 0.875 0.875 0 0 0 1.75 0c0-1 0.6-1.125 1.125-1.125a1.105 1.105 0 0 1 1.13 0.744 0.894 0.894 0 0 1-0.53 1.016 2.738 2.738 0 0 0-1.475 2.365v0.337a0.875 0.875 0 0 0 1.75 0v-0.37a1.041 1.041 0 0 1 0.609-0.824 2.637 2.637 0 0 0 1.336-2.983 2.838 2.838 0 0 0-2.82-2.035zm0 7.625a1.25 1.25 0 1 0 1.25 1.25 1.25 1.25 0 0 0-1.25-1.25z" fill="#bfb9ff" fill-opacity=".94118"/>
</svg>

<?xml version="1.0" encoding="UTF-8" standalone="no"?>
<!-- This Source Code Form is subject to the terms of the Mozilla Public
   - License, v. 2.0. If a copy of the MPL was not distributed with this
   - file, You can obtain one at http://mozilla.org/MPL/2.0/. -->

<svg
   xmlns:dc="http://purl.org/dc/elements/1.1/"
   xmlns:cc="http://creativecommons.org/ns#"
   xmlns:rdf="http://www.w3.org/1999/02/22-rdf-syntax-ns#"
   xmlns:svg="http://www.w3.org/2000/svg"
   xmlns="http://www.w3.org/2000/svg"
   xmlns:sodipodi="http://sodipodi.sourceforge.net/DTD/sodipodi-0.dtd"
   xmlns:inkscape="http://www.inkscape.org/namespaces/inkscape"
   width="16"
   height="16"
   viewBox="0 0 16 16"
   version="1.1"
   id="svg5202"
   sodipodi:docname="help-dk.svg"
   inkscape:version="0.92.2 5c3e80d, 2017-08-06">
  <metadata
     id="metadata5208">
    <rdf:RDF>
      <cc:Work
         rdf:about="">
        <dc:format>image/svg+xml</dc:format>
        <dc:type
           rdf:resource="http://purl.org/dc/dcmitype/StillImage" />
        <dc:title></dc:title>
      </cc:Work>
    </rdf:RDF>
  </metadata>
  <defs
     id="defs5206" />
  <sodipodi:namedview
     pagecolor="#ffffff"
     bordercolor="#666666"
     borderopacity="1"
     objecttolerance="10"
     gridtolerance="10"
     guidetolerance="10"
     inkscape:pageopacity="0"
     inkscape:pageshadow="2"
     inkscape:window-width="2048"
     inkscape:window-height="1026"
     id="namedview5204"
     showgrid="false"
     inkscape:zoom="14.75"
     inkscape:cx="-4.3728813"
     inkscape:cy="8"
     inkscape:window-x="0"
     inkscape:window-y="1"
     inkscape:window-maximized="1"
     inkscape:current-layer="svg5202" />
  <path
     fill="#6256aa"
     d="M 8,1 A 7,7 0 1 0 15,8 7.008,7.008 0 0 0 8,1 Z M 8,14 A 6,6 0 1 1 14,8 6.007,6.007 0 0 1 8,14 Z M 8,3.125 A 2.7,2.7 0 0 0 5.125,6 0.875,0.875 0 0 0 6.875,6 C 6.875,5 7.475,4.875 8,4.875 A 1.105,1.105 0 0 1 9.13,5.619 0.894,0.894 0 0 1 8.6,6.635 2.738,2.738 0 0 0 7.125,9 v 0.337 a 0.875,0.875 0 0 0 1.75,0 V 8.967 A 1.041,1.041 0 0 1 9.484,8.143 2.637,2.637 0 0 0 10.82,5.16 2.838,2.838 0 0 0 8,3.125 Z M 8,10.75 A 1.25,1.25 0 1 0 9.25,12 1.25,1.25 0 0 0 8,10.75 Z"
     id="path5200"
     inkscape:connector-curvature="0"
     style="fill:#bfb9ff;fill-opacity:0.94117647" />
</svg>
